tools/download-figma-icons/icons/outlined-medium/file.svg

<svg width="24" height="24" viewBox="0 0 24 24" fill="none" xmlns="http://www.w3.org/2000/svg">
<path fill-rule="evenodd" clip-rule="evenodd" d="M3.75012 1.5V22.4918H20.2501V8.136H15.8379C14.6109 8.136 13.6126 7.1385 13.6126 5.91225V1.5H3.75012ZM15.8379 6.63601H19.9261L15.1126 1.82251V5.91226C15.1126 6.31126 15.4381 6.63601 15.8379 6.63601ZM15.6309 0.21975L21.5304 6.11925C21.6714 6.2595 21.7501 6.45 21.7501 6.6495V23.2418C21.7501 23.6565 21.4149 23.9918 21.0001 23.9918H3.00012C2.58537 23.9918 2.25012 23.6565 2.25012 23.2418V0.75C2.25012 0.33525 2.58537 0 3.00012 0H15.1006C15.2994 0 15.4899 0.07875 15.6309 0.21975ZM7.50012 11.2403H16.5001C16.9149 11.2403 17.2501 11.5755 17.2501 11.9903C17.2501 12.405 16.9149 12.7403 16.5001 12.7403H7.50012C7.08537 12.7403 6.75012 12.405 6.75012 11.9903C6.75012 11.5755 7.08537 11.2403 7.50012 11.2403ZM16.5001 14.3743H7.50012C7.08537 14.3743 6.75012 14.7095 6.75012 15.1243C6.75012 15.539 7.08537 15.8743 7.50012 15.8743H16.5001C16.9149 15.8743 17.2501 15.539 17.2501 15.1243C17.2501 14.7095 16.9149 14.3743 16.5001 14.3743ZM7.50012 17.5083H16.5001C16.9149 17.5083 17.2501 17.8436 17.2501 18.2583C17.2501 18.6731 16.9149 19.0083 16.5001 19.0083H7.50012C7.08537 19.0083 6.75012 18.6731 6.75012 18.2583C6.75012 17.8436 7.08537 17.5083 7.50012 17.5083Z" fill="black"/>
</svg>

<svg xmlns="http://www.w3.org/2000/svg" width="24" height="24" fill="none" viewBox="0 0 24 24"><path fill="currentColor" fill-rule="evenodd" d="M3.75 1.5v20.992h16.5V8.136h-4.412a2.227 2.227 0 0 1-2.225-2.224V1.5zm12.088 5.136h4.088l-4.813-4.813v4.09c0 .398.325.723.725.723M15.63.22l5.9 5.9c.14.14.22.33.22.53v16.592a.75.75 0 0 1-.75.75H3a.75.75 0 0 1-.75-.75V.75A.75.75 0 0 1 3 0h12.1a.75.75 0 0 1 .53.22M7.5 11.24h9a.75.75 0 1 1 0 1.5h-9a.75.75 0 1 1 0-1.5m9 3.134h-9a.75.75 0 1 0 0 1.5h9a.75.75 0 1 0 0-1.5m-9 3.134h9a.75.75 0 1 1 0 1.5h-9a.75.75 0 1 1 0-1.5" clip-rule="evenodd"/></svg>
